X:1
T:Ta bonne grace
T:Roquelay
T:Source : Second livre contenant 25 chansons nouvelles à 4 parties---Paris---P.Attaignant---1536. Editor : André Vierendeels (13/12/17). Notes : Original clefs : C1, C3, C4, F4 Original note values have been halved Editorial accidentals above the staff Square brackets indicate ligatures Dotted brackets indicate black notes
T:Ta bonne grace
T:©
T:©
T:©
T:©
C:Roquelay
Z:©
%%score [ 1 2 3 4 ]
L:1/8
Q:1/4=100
M:2/2
K:C
V:1 treble nm="Soprano" snm="S"
V:2 treble nm="Alto" snm="A"
V:3 treble-8 nm="Tenor" snm="T"
V:4 bass nm="Bass" snm="B"
V:1
 G4 G2 G2 | A4 G4 | z2 G2 G2 G2 | A4 G4 | z2 c2 c2 c2 | BAGF ED A2- | AG G4 F2 | G2 G2 A2 A2 | %8
w: Ta bon- ne|gra- ce,|ta bon- ne|gra- ce|et main- tien|gra- * * * * * *|* * * ci-|eulx, et le re-|
 G4 z2 G2 | A2 A2 G4 | z2 c2 c2 c2 | BAGF ED A2- | AG G4 F2 | G4 z4 | G4 A2 B2 | c4 C4 | %16
w: gard, et|le re- gard,|de tes doulz|ri- * * * * * *|* * * ants|yeulx,|m'ont trans- per-|cé, m'ont|
 G2 G2 F2 F2 | E8 | z2 G2 A2 B2 | c2 d3 c c2- | c2 B2 c4- | c4 z4 | A2 AA G4 | c2 cB A2 A2 | %24
w: trans- per- cé le|cueur|de tel- le|for- * * *|* * ce|_|que con- traint suis,|que non- traint suis de|
 d3 c B2 A2- |"^#" AG G4 F2 | G2 B2 B2 B2 | c4 B2 G2 | G2 G2 c4 | A4 z2 c2 | c2 c2 f4 | d4 c4 | %32
w: cri- er à la|_ _ por- *|te, mi- se- ri-|cor- de, mi-|se- ri- cor-|de mi-|se- ri- cor-|de au|
 c2 A3 G G2- |"^#" G2 F2 G4- | G8- | G8- | G8- | G8 |] %38
w: pau- vre _ lan-|* gou- reulx.|_||||
V:2
 E4 E2 E2 | C2 D2 E3 D/C/ | B,2 E2 E2 E2 | C2 D2 E3 D/C/ | B,2 E2 E2 E2 | D2 E2 C2 E2- | E2 C2 D4 | %7
w: Ta bon- ne|gra- * * * *|ca, ta bon- ne|gra- * * * *|ce, et main- tien|gra- * * *|* ci eulx,|
"^#" z2 E2 C2 D2 | E6 E2 | C2 D2 E4- | E2 E2 E2 E2 | D2 E2 C2 E2- | E2 C2 D4 | z8 | E4 F2 G2 | %15
w: et le re-|gard, et|le re- gard,|_ de tes doulx|ri- * * *|* ants yeulx,||m'ont trans- per-|
 E2 E2 F2 G2 | E4 D4 | B,2 B,2 C2 E2 | D3 E F2 G2 | E2 G4 F2 | G4 G2 GF | E4 z4 | F2 FE D2 D2 | %23
w: cé, m'ont trans- per-|cé le|cueur de tel- le|for- * * *||ce, que con- traint|suis|que con- traint suis de|
 G4 F4 | F6 F2 | D2 E2 D4 | B,2 D2 D2 D2 | E4 D4 | z2 E2 E2 E2 | F4 E4 | z2 A2 A2 A2 | F3 G A4 | %32
w: cri- er|a la|por- * *|te, mi- se- ri-|cor- de,|mi- se- ri-|cor- de,|mi- se- ri-|cor- * de,|
 z2 D2 D2 C2 | D2 D2 B,2 D2 | D2 D2 E4 | D2 D2 C2 D2 | E2 E2 D4- | D8 |] %38
w: au pau- vre|lan- gou- reulx, mi-|se- ri- cor-|de au pau- vre|lan- gou- reulx.|_|
V:3
 c4 c2 c2 | A4 B4 | G4 z2 c2 | c2 A2 B4 | G8 | z2 c2 c2 c2 | B2 G2 A4 | G4 z2 A2 | B2 B2 c4 | %9
w: Ta bon- ne|gra- *|ce, ta|bon- ne gra-|ce,|et main- tien|gra- * ci-|eulx, et|le re- gard,|
 z2 A2 B2 B2 | c3 B/A/ G4 | z2 c2 c2 c2 | B2 AG A4 | G2 G2 A2 B2 | c4 z4 | G4 A2 G2 | c4 A4 | %17
w: et le re-|gard, _ _ _|de tes doulx|ri- * * ants|yeulx, m'ont trans- per-|cé,|m'ont trans- per-|cé le|
 G4 z2 G2 | A2 B2 c2 G2 | c2 B2 c4 | d4 c4 | c2 cB A4 | d2 dc B2 B2 | e4 c4 | z2 A2 d3 c | %25
w: cueur de|tel- le for- *||* ce|que con- traint suis,|que con- traint suis de|cri- er,|a la _|
 B2 c2 A4 | G8 | z2 G2 G2 G2 | c4 G4 | z2 c2 c2 c2 | f4 c4 | z2 d2 f3 e/d/ | c2 d2 B2 AG | %33
w: _ _ por-|te,|mi- se- ri-|cor- de,|mi- se- ri-|cor- de,|au pau- * *|* vre lan- * *|
 A2 A2 G2 B2 | B2 B2 c4 | B2 B2 e2 d2 | c2 c2 B4- | B8 |] %38
w: * gou- reulx, mi-|se- ri- cor-|de au pau- vre|lan- gou- reulx.|_|
V:4
 C,4 C,2 C,2 | F,4 E,4 | z2 C,2 C,2 C,2 | F,4 E,4 | z2 C,2 C,2 C,2 | G,2 C,4 B,,A,, | E,4 D,4 | %7
w: Ta bon- ne|gra- ce,|ta bon- ne|gra- ce,|et main- tien|gra- * * *|* ci-|
 G,,2 C,2 F,2 F,2 | E,4 z2 C,2 | F,2 F,2 E,4 | z2 C,2 C,2 C,2 | G,2 C,4 B,,A,, | E,4 D,4 | %13
w: eulx, et le re-|gard, et|le re- gard,|de tes doulx|ri- * * *|ants _|
 G,,2 C,2 F,2 E,2 | C,4 z4 | C,4 F,2 E,2 | C,4 D,4 | E,4 z2 E,2 | F,2 G,2 F,2 E,2 | A,2 G,2 A,4 | %20
w: yeulx, m'ont trans- per-|cé,|m'ont trans- per-|cé le|cueur de|tel- le for- *||
 G,4 C,4- | C,4 F,2 F,E, | D,4 G,2 G,G, | C,2 C,2 F,4 | D,6 D,2 | G,2 C,2 D,4 | %26
w: * ce|_ que con- traint|suis, que con- traint|suis de cri-|er à|la _ por-|
 G,,2 G,,2 G,,2 G,,2 | C,4 G,,4 | z2 C,2 C,2 C,2 | F,4 C,4 | z2 F,2 F,2 F,2 | B,4 F,3 F, | %32
w: te, mi- se- ri-|cor- de,|mi- se- ri-|cor- de,|mi- se- ri-|cor- de au|
 E,2 D,2 E,4 | D,4 G,,2 G,,2 | G,,2 G,,2 C,4 | G,,2 G,,2 C,2 B,,2 | C,2 C,2 G,,4- | G,,8 |] %38
w: pau- vre lan-|gou- reulx, mi-|se- ri- cor-|de au pau- vre|lan- gou- reulx.|_|

